X: 225
T:Orange Rogue
% Nottingham Music Database
Y:LALABA
S:McCusker Brothers, via EF
M:6/8
K:Em
P:L
|B|
P:A
"Em""C"e/2f/2ge "D""G"dBA|"Em"GEF G2A|"G"BAB "D"def|"G"g2b "D"agf|
"Em""C"e/2f/2ge "D""G"dBA|"Em"GEF G2A|"G"BAB "D"dBA|[1"Em"e3 -e2B:|[2"Em"e3 -e2||
P:B
f|"Em"g2e "D"a2f|"Em"g2B BAB|"Em"g2e "D"a2f|"Em"g3 B2f|
"Em"g2e "D"a2f|"G"gfe "D"fed|"G"BAB "D"def|"Em"g2b "D"agf||


